X: 21161
Q: "Slowly and tenderly."
U: p=!crescendo(!
U: P=!crescendo)!
U: Q=!diminuendo(!
U: q=!diminuendo)!
M: 3/4
L: 1/8
K: G
V: 1 staves=2
QB4 q(ed) | pd4 PB>d |Q (e2q d2) B2 | d2 d2 "_cres."(ef) |\
Qg4 q(fe) | "_>"d2 B2 !p!e>f | "_>"d2 B2 !pp!e>f | d2 B2 !mf!(GA) |\
pB2 Pd2 (ef) | Qg2 qg2 (fe) | (dc) (BA) (GA) | "cres."B2 !f!e2 (de) |\
"_>"g2 f2 e2 | "_>"d2 B2 !p!(cB) | pA2 PG2 Bd | !f!e2 g2 |]
V: 2
(B2 e2 dc) | B2 G2 c2 | B2 G2 c2 | B2 G2 (GF) |


